X:159
T:Polska efter J J Bruun
R:sl\"angpolska
A:Sk{\aa}ne
B:SvL Sk{\aa}ne 512
Z:id:hn-sp-159
M:3/4
L:1/16
K:D
d2dc d2A2 d2A2 | f2fe f2d2 f2d2 | e2ef g2f2 e2d2 | cBcd edcB A4 |
d2dc d2A2 d2A2 | f2fe f2d2 f2d2 | g2ba g2f2 e2d2 | cdec d2f2 d4 :|
|: e2ef g2e2 f2d2 | c2cd e2c2 f2d2 | e2ef g2f2 e2d2 | c2cd edcB A4 |
e2ef g2e2 f2d2 | c2cd e2c2 f2d2 | g2ba g2f2 e2d2 | cdec d2f2 d4 :|
<end>
<start>
